!!!COM: Ernest Chausson
!!!CNT: Francais
!!!TXO: Francais
!!!OTL: "Les morts (from Chansons de Miarka)"
!!!LYR: Richepin
!!!OPR:
!!!OPS: Op. 17
!!!ONM: No. 1
!!!ENC: Emily Thomas
!!!YOR: CD Sheet Music French Art Songs, The Ultimate Collection
!!!YOR: CD Sheet Music, LLC 2003
!!!ODT: 1888/
!!NB: Vocal melody and text encoded.
**kern	**silbe
=1	=1
*clefG2	*
*k[f#c#g#d#]	*
*M2/4	*
*MM[Lento]	*
2r	.
=2	=2
2r	.
=3	=3
2r	.
=4	=4
{4e	{Ne
4f#	crois
=5	=5
4g#	pas
8a#	que
8b	les
=6	=6
4g#	morts
4e	soient
=7	=7
[2g#	morts!
=8	=8
4g#_	|
8g#]}	|}
8r	.
=9	=9
{8g#	{Tant
8a#	qu'il
8b	y
8cc#	au-
=10	=10
12dd	-ra
12cc#	des
12b	vi-
[4g#	-vants
=11	=11
4.g#]	|
8g#	les
=12	=12
8g#	morts
8f#	vi-
[4f#	-vront,
=13	=13
8f#]}	|}
8r	.
4r	.
=14	=14
{4e	{les
[4e	morts
=15	=15
4e]	|
4e	vi-
=16	=16
[2c#	-vront
=17	=17
4c#_	|
8c#]}	|}
8r	.
=18	=18
2r	.
=19	=19
{8g#	{Lors-
8g#	-que
8a#	le
8b	so-
=20	=20
4g#	-leil
8e	s'est
8e	cou-
=21	=21
2e}	-che/,}
=22	=22
{8d#	{Tu
8d#	n'as
8e#	qu'a
8f#	fer-
=23	=23
4cc#	-mer
8b	tes
8a	deux
=24	=24
2g#}	yeux}
=25	=25
8r	.
{8b	{Pour
8cc#	qu'il
8cc#	s'y
=26	=26
4.dd#	le\-
8dd#	-ve,
=27	=27
8r	.
4ee	ral-
8ee	-lu-
=28	=28
[2ee	-me/.
=29	=29
4ee]}	|}
4r	.
=30	=30
2r	.
=31	=31
8r	.
{8g#	{L'oi-
8e	-seau
8e	s'en-
=32	=32
4e	-vo-
8e}	-le,}
8r	.
=33	=33
8r	.
{8b	{l'oi-
8g#	-seau
8g#	s'en
=34	=34
*M3/4	*
[2b	gone;
8b]}	|}
8r	.
=35	=35
*M2/4	*
{8gn	{Mais
8a	pen-
8b	-dant
8ddn	qu'il
=36	=36
[4ggn	pla-
12ggn]	|
12ee	-ne
12ee	la\-
=37	=37
2ddn}	-haut,}
=38	=38
4r	.
{4gn	{Son
=39	=39
4.ddn	om-
8dd	-bre
=40	=40
8b	res-
8b	-te
8a	sur
8gn	la
=41	=41
[2b	ter-
=42	=42
2b_	|
=43	=43
4b]}	-eth.}
4r	.
=44	=44
4r	.
8r	.
{8f#	{Le
=45	=45
4.e	souf-
8e	-fle
=46	=46
8f#	que
8f#	tu
8g#	m'as
8a	fait
=47	=47
8f#	boi-
8f#	-re
8e	Sur
8dn	tes
=48	=48
4.a	le\-
[8a	-vres,
=49	=49
8a]	|
8a	en
8gn	t'en
8fn	al-
=50	=50
[2a	-lant,
=51	=51
4a]}	|}
4r	.
=52	=52
4r	.
{4g#	{Il
=53	=53
4f#	est
4f#	en
=54	=54
[2cc#	moi,
=55	=55
4cc#_	|
8cc#]}	|}
8r	.
=56	=56
4r	.
{4ee	{Il
=57	=57
[2ee	est
=58	=58
4ee]	|
4e	en
=59	=59
[2e	moi.
=60	=60
8e]}	|}
8r	.
4r	.
=61	=61
4r	.
8r	.
{8f#	{Un
=62	=62
8g#	au-
8g#	-tre
8a#	te
8b	l'a-
=63	=63
4b	-vait
4g#	don-
=64	=64
2g#}	-ne/}
=65	=65
8r	.
{8g#	{en
8f#	s'en
8e	al-
=66	=66
4d#}	-lant,}
4r	.
=67	=67
2r	.
=68	=68
8r	.
{8f#	{En
8g#	m'en
8a#	al-
=69	=69
4b	-lant,
8cc#	je
8cc#	le
=70	=70
4dd#	don-
8dd#	-ne
8dd#	-rai
=71	=71
4ee	a\
8ddn	un
8ccn	|
=72	=72
4.b	au-
[8b	-tre.
=73	=73
8b]}	|}
8r	.
4r	.
=74	=74
8r	.
{8b	{De
8b	bouche
8b	en
=75	=75
[2ddn	bouche
=76	=76
8ddn]	|
8fn	il
8fn	a
8fn	pas-
=77	=77
2e}	-se/;}
=78	=78
2r	.
=79	=79
8r	.
{8b	{De
8b	bouche
8b	en
=80	=80
[2ffn	bouche
=81	=81
8ffn]	|
8dn	il
8dn	pas-
8dn	-se-
=82	=82
2e}	-ra.}
=83	=83
4r	.
8r	.
{8g#	{Ain-
=84	=84
[2cc#	-si-
=85	=85
4cc#]	|
4a	ja-
=86	=86
[2g#	-mais
=87	=87
2g#]}	|}
=88	=88
4r	.
{4cc#	{ne
=89	=89
4cc#	se
4cc#	per-
=90	=90
[2c#	-dra.
=91	=91
4c#]}	|}
4r	.
==	==
*-	*-
